static/img/kroki/172df2e06179d64089621027e188eaa4.svg

<?xml version="1.0" encoding="us-ascii" standalone="no"?><svg xmlns="http://www.w3.org/2000/svg" xmlns:xlink="http://www.w3.org/1999/xlink" contentStyleType="text/css" height="374px" preserveAspectRatio="none" style="width:384px;height:374px;" version="1.1" viewBox="0 0 384 374" width="384px" zoomAndPan="magnify"><defs/><g><!--class digitalocean_droplet--><g id="elem_digitalocean_droplet"><rect codeLine="23" fill="#3D176E" height="39.7891" id="digitalocean_droplet" rx="2.5" ry="2.5" style="stroke:#000D19;stroke-width:0.5;" width="211" x="114" y="328.58"/><ellipse cx="129" cy="348.4745" fill="#ADD1B2" rx="11" ry="11" style="stroke:#181818;stroke-width:1.0;"/><path d="M131.9688,354.1152 Q131.3906,354.412 130.75,354.5527 Q130.1094,354.7089 129.4063,354.7089 Q126.9063,354.7089 125.5781,353.0683 Q124.2656,351.412 124.2656,348.287 Q124.2656,345.162 125.5781,343.5058 Q126.9063,341.8495 129.4063,341.8495 Q130.1094,341.8495 130.75,342.0058 Q131.4063,342.162 131.9688,342.4589 L131.9688,345.1777 Q131.3438,344.5995 130.75,344.3339 Q130.1563,344.0527 129.5313,344.0527 Q128.1875,344.0527 127.5,345.1308 Q126.8125,346.1933 126.8125,348.287 Q126.8125,350.3808 127.5,351.4589 Q128.1875,352.5214 129.5313,352.5214 Q130.1563,352.5214 130.75,352.2558 Q131.3438,351.9745 131.9688,351.3964 L131.9688,354.1152 Z " fill="#000000"/><text fill="#D9B8FF" font-family="Helvetica" font-size="17" lengthAdjust="spacing" textLength="169" x="148" y="354.3598">digitalocean_droplet</text></g><!--class digitalocean_resource--><g id="elem_digitalocean_resource"><rect codeLine="26" fill="#3D176E" height="39.7891" id="digitalocean_resource" rx="2.5" ry="2.5" style="stroke:#000D19;stroke-width:0.5;" width="223" x="7" y="167.79"/><ellipse cx="22" cy="187.6845" fill="#ADD1B2" rx="11" ry="11" style="stroke:#181818;stroke-width:1.0;"/><path d="M24.9688,193.3252 Q24.3906,193.622 23.75,193.7627 Q23.1094,193.9189 22.4063,193.9189 Q19.9063,193.9189 18.5781,192.2783 Q17.2656,190.622 17.2656,187.497 Q17.2656,184.372 18.5781,182.7158 Q19.9063,181.0595 22.4063,181.0595 Q23.1094,181.0595 23.75,181.2158 Q24.4063,181.372 24.9688,181.6689 L24.9688,184.3877 Q24.3438,183.8095 23.75,183.5439 Q23.1563,183.2627 22.5313,183.2627 Q21.1875,183.2627 20.5,184.3408 Q19.8125,185.4033 19.8125,187.497 Q19.8125,189.5908 20.5,190.6689 Q21.1875,191.7314 22.5313,191.7314 Q23.1563,191.7314 23.75,191.4658 Q24.3438,191.1845 24.9688,190.6064 L24.9688,193.3252 Z " fill="#000000"/><text fill="#D9B8FF" font-family="Helvetica" font-size="17" lengthAdjust="spacing" textLength="181" x="41" y="193.5698">digitalocean_resource</text></g><!--class instance--><g id="elem_instance"><rect codeLine="29" fill="#3D176E" height="39.7891" id="instance" rx="2.5" ry="2.5" style="stroke:#000D19;stroke-width:0.5;" width="112" x="265.5" y="167.79"/><ellipse cx="280.5" cy="187.6845" fill="#ADD1B2" rx="11" ry="11" style="stroke:#181818;stroke-width:1.0;"/><path d="M283.4688,193.3252 Q282.8906,193.622 282.25,193.7627 Q281.6094,193.9189 280.9063,193.9189 Q278.4063,193.9189 277.0781,192.2783 Q275.7656,190.622 275.7656,187.497 Q275.7656,184.372 277.0781,182.7158 Q278.4063,181.0595 280.9063,181.0595 Q281.6094,181.0595 282.25,181.2158 Q282.9063,181.372 283.4688,181.6689 L283.4688,184.3877 Q282.8438,183.8095 282.25,183.5439 Q281.6563,183.2627 281.0313,183.2627 Q279.6875,183.2627 279,184.3408 Q278.3125,185.4033 278.3125,187.497 Q278.3125,189.5908 279,190.6689 Q279.6875,191.7314 281.0313,191.7314 Q281.6563,191.7314 282.25,191.4658 Q282.8438,191.1845 283.4688,190.6064 L283.4688,193.3252 Z " fill="#000000"/><text fill="#D9B8FF" font-family="Helvetica" font-size="17" lengthAdjust="spacing" textLength="70" x="299.5" y="193.5698">instance</text></g><!--class resource--><g id="elem_resource"><rect codeLine="32" fill="#3D176E" height="39.7891" id="resource" rx="2.5" ry="2.5" style="stroke:#000D19;stroke-width:0.5;" width="113" x="163" y="7"/><ellipse cx="178" cy="26.8945" fill="#ADD1B2" rx="11" ry="11" style="stroke:#181818;stroke-width:1.0;"/><path d="M180.9688,32.5352 Q180.3906,32.832 179.75,32.9727 Q179.1094,33.1289 178.4063,33.1289 Q175.9063,33.1289 174.5781,31.4883 Q173.2656,29.832 173.2656,26.707 Q173.2656,23.582 174.5781,21.9258 Q175.9063,20.2695 178.4063,20.2695 Q179.1094,20.2695 179.75,20.4258 Q180.4063,20.582 180.9688,20.8789 L180.9688,23.5977 Q180.3438,23.0195 179.75,22.7539 Q179.1563,22.4727 178.5313,22.4727 Q177.1875,22.4727 176.5,23.5508 Q175.8125,24.6133 175.8125,26.707 Q175.8125,28.8008 176.5,29.8789 Q177.1875,30.9414 178.5313,30.9414 Q179.1563,30.9414 179.75,30.6758 Q180.3438,30.3945 180.9688,29.8164 L180.9688,32.5352 Z " fill="#000000"/><text fill="#D9B8FF" font-family="Helvetica" font-size="17" lengthAdjust="spacing" textLength="71" x="197" y="32.7798">resource</text></g><!--reverse link digitalocean_resource to digitalocean_droplet--><g id="link_digitalocean_resource_digitalocean_droplet"><path codeLine="35" d="M140.3431,223.0263 C159.7631,253.5463 187.83,297.69 207.27,328.25 " fill="none" id="digitalocean_resource-backto-digitalocean_droplet" style="stroke:#FFAF37;stroke-width:2.0;"/><polygon fill="none" points="130.68,207.84,135.281,226.2474,145.4052,219.8053,130.68,207.84" style="stroke:#FFAF37;stroke-width:2.0;"/></g><!--reverse link instance to digitalocean_droplet--><g id="link_instance_digitalocean_droplet"><path codeLine="36" d="M299.4699,222.9835 C279.8599,253.5035 251.48,297.69 231.85,328.25 " fill="none" id="instance-backto-digitalocean_droplet" style="stroke:#FFAF37;stroke-width:2.0;"/><polygon fill="none" points="309.2,207.84,294.4221,219.7401,304.5177,226.2268,309.2,207.84" style="stroke:#FFAF37;stroke-width:2.0;"/></g><!--reverse link resource to digitalocean_resource--><g id="link_resource_digitalocean_resource"><path codeLine="37" d="M197.6569,62.2363 C178.2369,92.7563 150.17,136.9 130.73,167.46 " fill="none" id="resource-backto-digitalocean_resource" style="stroke:#FFAF37;stroke-width:2.0;"/><polygon fill="none" points="207.32,47.05,192.5948,59.0153,202.719,65.4574,207.32,47.05" style="stroke:#FFAF37;stroke-width:2.0;"/></g><!--reverse link resource to instance--><g id="link_resource_instance"><path codeLine="38" d="M241.5301,62.1935 C261.1401,92.7135 289.52,136.9 309.15,167.46 " fill="none" id="resource-backto-instance" style="stroke:#FFAF37;stroke-width:2.0;"/><polygon fill="none" points="231.8,47.05,236.4823,65.4368,246.5779,58.9501,231.8,47.05" style="stroke:#FFAF37;stroke-width:2.0;"/></g><!--SRC=[XP3DRi8m48JlVWfBd2CbHIqWzG98LNj1LUczMk9ri4ZiQBqKqPztRoaDCau8rvbFCxExDWebLZNlPONL2iaBlp6s1e9AJedSRkvAHtAWDUZXA3OVdEMhm08gb8zOlYER76BYTMtoZKNlvKrWpI3V5EIsLXtZcS3wNmij1zIy1E-dp6HMMyPWZ9ginbh7P1mw6AfiT8Sjp952-aVID5NP94QkLlNUVIAMvWDb5ZvjuHXRCriLVrJloWCHZ6mTslWNDpw3KiOMyZRGNewRo2ATwSirABSxq1fA7zPuHaB7-nhdhQjmCbPwr0a_NO95VdYTLAOm3ANB4UoR8bUNoF9JYEykdz2xBUKO0iPw1dkkdNFT4VTVIP9qrejJP0_JbzDuCTJaYXy0]--></g></svg>

<svg xmlns="http://www.w3.org/2000/svg" width="384" height="374" viewBox="0 0 384 374"><rect width="211" height="39.789" x="114" y="328.58" fill="#3D176E" rx="2.5" ry="2.5" style="stroke:#000d19;stroke-width:.5"/><circle cx="129" cy="348.474" r="11" fill="#ADD1B2" style="stroke:#181818;stroke-width:1"/><path d="M131.969 354.115q-.578.297-1.219.438-.64.156-1.344.156-2.5 0-3.828-1.64-1.312-1.657-1.312-4.782t1.312-4.781q1.328-1.656 3.828-1.656.703 0 1.344.156.656.156 1.219.453v2.719q-.625-.579-1.219-.844-.594-.281-1.219-.281-1.344 0-2.031 1.078-.687 1.062-.687 3.156t.687 3.172q.688 1.062 2.031 1.062.625 0 1.219-.265.594-.281 1.219-.86z"/><text x="148" y="354.36" fill="#D9B8FF" font-family="Helvetica" font-size="17" textLength="169">digitalocean_droplet</text><rect width="223" height="39.789" x="7" y="167.79" fill="#3D176E" rx="2.5" ry="2.5" style="stroke:#000d19;stroke-width:.5"/><circle cx="22" cy="187.685" r="11" fill="#ADD1B2" style="stroke:#181818;stroke-width:1"/><path d="M24.969 193.325q-.578.297-1.219.438-.64.156-1.344.156-2.5 0-3.828-1.64-1.312-1.657-1.312-4.782t1.312-4.781q1.328-1.656 3.828-1.656.703 0 1.344.156.656.156 1.219.453v2.719q-.625-.578-1.219-.844-.594-.281-1.219-.281-1.343 0-2.031 1.078-.687 1.062-.687 3.156t.687 3.172q.688 1.062 2.031 1.062.625 0 1.219-.265.594-.281 1.219-.86z"/><text x="41" y="193.57" fill="#D9B8FF" font-family="Helvetica" font-size="17" textLength="181">digitalocean_resource</text><rect width="112" height="39.789" x="265.5" y="167.79" fill="#3D176E" rx="2.5" ry="2.5" style="stroke:#000d19;stroke-width:.5"/><circle cx="280.5" cy="187.685" r="11" fill="#ADD1B2" style="stroke:#181818;stroke-width:1"/><path d="M283.469 193.325q-.578.297-1.219.438-.64.156-1.344.156-2.5 0-3.828-1.64-1.312-1.657-1.312-4.782t1.312-4.781q1.328-1.656 3.828-1.656.703 0 1.344.156.656.156 1.219.453v2.719q-.625-.578-1.219-.844-.594-.281-1.219-.281-1.344 0-2.031 1.078-.687 1.062-.687 3.156t.687 3.172q.688 1.062 2.031 1.062.625 0 1.219-.265.594-.281 1.219-.86z"/><text x="299.5" y="193.57" fill="#D9B8FF" font-family="Helvetica" font-size="17" textLength="70">instance</text><rect width="113" height="39.789" x="163" y="7" fill="#3D176E" rx="2.5" ry="2.5" style="stroke:#000d19;stroke-width:.5"/><circle cx="178" cy="26.895" r="11" fill="#ADD1B2" style="stroke:#181818;stroke-width:1"/><path d="M180.969 32.535q-.578.297-1.219.438-.64.156-1.344.156-2.5 0-3.828-1.64-1.312-1.657-1.312-4.782t1.312-4.781q1.328-1.656 3.828-1.656.703 0 1.344.156.656.156 1.219.453v2.719q-.625-.578-1.219-.844-.594-.281-1.219-.281-1.344 0-2.031 1.078-.687 1.062-.687 3.156t.687 3.172q.688 1.062 2.031 1.062.625 0 1.219-.265.594-.281 1.219-.86z"/><text x="197" y="32.78" fill="#D9B8FF" font-family="Helvetica" font-size="17" textLength="71">resource</text><g fill="none"><path d="M140.343 223.026c19.42 30.52 47.487 74.664 66.927 105.224" style="stroke:#ffaf37;stroke-width:2"/><path d="m130.68 207.84 4.601 18.407 10.124-6.442z" style="stroke:#ffaf37;stroke-width:2"/></g><path fill="none" d="M299.47 222.984c-19.61 30.52-47.99 74.706-67.62 105.266m77.35-120.41-14.778 11.9 10.096 6.487z" style="stroke:#ffaf37;stroke-width:2"/><g fill="none"><path d="M197.657 62.236c-19.42 30.52-47.487 74.664-66.927 105.224" style="stroke:#ffaf37;stroke-width:2"/><path d="m207.32 47.05-14.725 11.965 10.124 6.442z" style="stroke:#ffaf37;stroke-width:2"/></g><path fill="none" d="M241.53 62.194c19.61 30.52 47.99 74.706 67.62 105.266M231.8 47.05l4.682 18.387 10.096-6.487z" style="stroke:#ffaf37;stroke-width:2"/></svg>
